svgs/duotone/arrow-down-from-line.svg

<svg xmlns="http://www.w3.org/2000/svg" viewBox="0 0 384 512"><!-- Font Awesome Pro 6.0.0-alpha2 by @fontawesome - https://fontawesome.com License - https://fontawesome.com/license (Commercial License) --><defs><style>.fa-secondary{opacity:.4}</style></defs><path d="M32 96H352C369.688 96 384 81.688 384 64S369.688 32 352 32H32C14.312 32 0 46.312 0 64S14.312 96 32 96Z" class="fa-secondary"/><path d="M342.625 297.375C355.125 309.875 355.125 330.125 342.625 342.625L214.625 470.625C202.125 483.125 181.875 483.125 169.375 470.625L41.375 342.625C28.875 330.125 28.875 309.875 41.375 297.375C47.625 291.125 55.813 288 64 288S80.375 291.125 86.625 297.375L160 370.75V192C160 174.312 174.313 160 192 160S224 174.312 224 192V370.75L297.375 297.375C309.875 284.875 330.125 284.875 342.625 297.375Z" class="fa-primary"/></svg>

<svg xmlns="http://www.w3.org/2000/svg" viewBox="0 0 384 512"><!--! Font Awesome Pro 6.3.0 by @fontawesome - https://fontawesome.com License - https://fontawesome.com/license (Commercial License) Copyright 2023 Fonticons, Inc. --><defs><style>.fa-secondary{opacity:.4}</style></defs><path class="fa-primary" d="M342.6 297.4c12.5 12.5 12.5 32.75 0 45.25l-128 128c-12.5 12.5-32.75 12.5-45.25 0l-128-128c-12.5-12.5-12.5-32.75 0-45.25C47.63 291.1 55.81 288 64 288s16.38 3.125 22.62 9.375L160 370.8V192c0-17.69 14.31-32 32-32s32 14.31 32 32v178.8l73.38-73.38C309.9 284.9 330.1 284.9 342.6 297.4z"/><path class="fa-secondary" d="M32 96h320c17.69 0 32-14.31 32-32s-14.31-32-32-32H32C14.31 32 0 46.31 0 64S14.31 96 32 96z"/></svg>
